!!!OTL: 522b. Jm Wald bei der Amsel.
!!!ARE: Europa, Mitteleuropa, Deutschland, Westerwald; Lahnkreis; Dillkreis
!!!SCT: E0522C
!!!TXL: @@DE
!!!YEM: Copyright 1995, estate of Helmut Schaffrath.
**kern	**text
*ICvox	*
!! Mixed meters:  2/4; 3/4
*M2/4	*
*k[b-]	*
*F:	*
=1	=1
!LO:TX:a:t=Aus dem Weſterwald, Lahn- und Dillkreis. 1880-90.	!
{8f	Ge-
8a	-ſtern
8f	A-
8a	-bend
=2	=2
8f	in
16aL	der
16b-J	.
8.cc	ſtil-
16a	-len
=3	=3
(4a	Ruh,
16b-qqL	.
16aqqJ	.
4g)}	.
=4	=4
{8g	hört
8g	ich
8g	ei-
8g	-ner
=5	=5
8g	ſchö-
8dd	-nen
8.cc	Am-
16dd	-ſel
=6	=6
(4cc	ʒu.
4a)}	.
=7	=7
*M3/4	*
{8cc^	Als
8a	ich
8a	da
8a	ſo
8a/L	ſaß,
8ccJ	.
=8	=8
8b-^	mei-
8g	-ner
8g	ganʒ
8g	ver-
8g;}	-gaß,
{8c	da
=9	=9
*M2/4	*
8f	kam
8a	die
8f	Am-
8a	-ſel,
=10	=10
8f	ſchmei-
16a/L	-chelt
16ccJ	.
8cc	ſich
8a	an
=11	=11
*M3/4	*
(4a	mich
16b-qqL	.
16aqqJ	.
4g)}	.
{8dd	und
8.cc	küß-
16dd	-te
=12	=12
(4cc	mich.
4a)}	.
==	==
!!!AGN: Liebes - Lied
!!!ONB: ESAC (Essen Associative Code) Database: ERK1
!!!AMT: irregular
!!!AIN: vox
!!!EED: Helmut Schaffrath
!!!EEV: 1.0
!!!GTL: Liebeslieder [Neuere (aus dem 18. bis 19. Jahrh.) - Liebeslust]
!!!URL-scan: https://rosdok.uni-rostock.de/mcrviewer/recordIdentifier/rosdok_ppn745177662/iview2/phys_0348.iview2?x=-4.404412318551749&y=729.8955144223291&scale=0.6456904138606623&rotation=0&layout=singlePageLayout
!!!ENC: Anna Maria Matuszewska
!!!EEV: 2024/10/12
*-	*-
